img/svg/icon-font/gear.svg

<svg width="22" height="22" viewBox="0 0 22 22" fill="none" xmlns="http://www.w3.org/2000/svg">
<path fill-rule="evenodd" clip-rule="evenodd" d="M18.9891 7.99223H19.4219C20.8435 7.99223 22 9.14878 22 10.5704V11.4297C22 12.8513 20.8435 14.0079 19.4219 14.0079H18.9891C18.8752 14.0079 18.772 14.0796 18.7262 14.1906L18.7197 14.2063C18.6734 14.3177 18.6955 14.4418 18.7761 14.5223L19.0821 14.8283C19.569 15.3153 19.8372 15.9627 19.8372 16.6513C19.8372 17.34 19.569 17.9874 19.0821 18.4743L18.4744 19.082C17.9874 19.569 17.34 19.8371 16.6514 19.8371C15.9627 19.8371 15.3153 19.569 14.8283 19.082L14.5223 18.776C14.4418 18.6955 14.3177 18.6734 14.2063 18.7196L14.1895 18.7266C14.0795 18.772 14.0078 18.8752 14.0078 18.989V19.4219C14.0078 20.8435 12.8513 22 11.4297 22H10.5703C9.14873 22 7.99219 20.8435 7.99219 19.4219V18.989C7.99219 18.8752 7.92052 18.772 7.80953 18.7262L7.79333 18.7195C7.68234 18.6734 7.55812 18.6954 7.47764 18.776L7.17166 19.082C6.68473 19.569 6.03732 19.8371 5.34862 19.8371C4.66 19.8371 4.01255 19.569 3.52559 19.082L2.91792 18.4743C2.431 17.9874 2.16283 17.34 2.16283 16.6513C2.16283 15.9627 2.431 15.3153 2.91796 14.8283L3.22395 14.5223C3.30447 14.4418 3.3266 14.3177 3.28032 14.2062L3.27267 14.1877C3.22794 14.0795 3.12477 14.0078 3.01091 14.0078H2.57812C1.15655 14.0078 0 12.8512 0 11.4296V10.5703C0 9.14869 1.15655 7.99214 2.57812 7.99214H3.01095C3.12477 7.99214 3.22803 7.92043 3.27383 7.80944L3.27903 7.79689C3.3266 7.68225 3.30451 7.5582 3.22399 7.47764L2.91801 7.17166C1.91275 6.1664 1.91275 4.53084 2.91796 3.52559L3.52563 2.91801C4.01259 2.43104 4.66 2.16287 5.34866 2.16287C6.03732 2.16287 6.68478 2.43104 7.1717 2.91801L7.47772 3.22403C7.5582 3.30455 7.68238 3.32668 7.79371 3.28036L7.81052 3.2734C7.92056 3.22798 7.99223 3.12482 7.99223 3.01099V2.57812C7.99223 1.15655 9.14878 0 10.5704 0H11.4297C12.8513 0 14.0079 1.15655 14.0079 2.57812V3.01099C14.0079 3.12482 14.0795 3.22798 14.1905 3.27383L14.2067 3.28054C14.3177 3.32664 14.4418 3.30455 14.5224 3.22399L14.8284 2.91801C15.3153 2.43104 15.9627 2.16287 16.6514 2.16287C17.34 2.16287 17.9875 2.43104 18.4745 2.91801L19.0821 3.52567C20.0873 4.53088 20.0873 6.16649 19.0821 7.1717L18.7761 7.47772C18.6956 7.55825 18.6734 7.6823 18.7197 7.79376L18.7274 7.81232C18.7721 7.92052 18.8753 7.99223 18.9891 7.99223ZM19.4219 12.2891C19.8957 12.2891 20.2812 11.9035 20.2812 11.4297V10.5703C20.2812 10.0965 19.8957 9.71094 19.4219 9.71094H18.9891C18.1768 9.71094 17.45 9.22213 17.1376 8.46557L17.1311 8.44989C16.8182 7.69661 16.9863 6.83676 17.5606 6.26235L17.8667 5.95629C18.2018 5.62121 18.2018 5.07603 17.8667 4.74096L17.259 4.13329C17.0967 3.971 16.8809 3.88158 16.6513 3.88158C16.4218 3.88158 16.206 3.97096 16.0437 4.13325L15.7376 4.43932C15.1632 5.01364 14.3033 5.18169 13.547 4.86759L13.5354 4.86277C12.7779 4.55005 12.2891 3.82332 12.2891 3.01099V2.57812C12.2891 2.10427 11.9035 1.71875 11.4297 1.71875H10.5703C10.0965 1.71875 9.71094 2.10427 9.71094 2.57812V3.01099C9.71094 3.82332 9.22208 4.55005 8.46553 4.86243L8.45341 4.86746C7.69678 5.18182 6.83684 5.01372 6.26239 4.4394L5.95633 4.13334C5.79403 3.971 5.57825 3.88162 5.34866 3.88162C5.11912 3.88162 4.90334 3.97104 4.74096 4.13334L4.13334 4.741C3.79822 5.07607 3.79822 5.62126 4.13334 5.95637L4.43932 6.26235C5.01368 6.83676 5.18177 7.69665 4.86759 8.45307L4.86359 8.46282C4.55 9.22213 3.82327 9.71094 3.01095 9.71094H2.57812C2.10427 9.71094 1.71875 10.0965 1.71875 10.5703V11.4297C1.71875 11.9035 2.10427 12.2891 2.57812 12.2891H3.01095C3.82323 12.2891 4.54996 12.7779 4.86243 13.5344L4.86802 13.5479C5.18164 14.3041 5.01346 15.1635 4.43936 15.7376L4.13334 16.0437C3.971 16.206 3.88162 16.4218 3.88162 16.6513C3.88162 16.8809 3.971 17.0967 4.13334 17.259L4.741 17.8667C4.90329 18.029 5.11912 18.1184 5.34866 18.1184C5.57825 18.1184 5.79399 18.029 5.95633 17.8667L6.26235 17.5606C6.64456 17.1785 7.15331 16.9761 7.6737 16.9761C7.93538 16.9761 8.19994 17.0272 8.45303 17.1324L8.46463 17.1372C9.22208 17.45 9.71094 18.1767 9.71094 18.989V19.4219C9.71094 19.8957 10.0965 20.2812 10.5703 20.2812H11.4297C11.9035 20.2812 12.2891 19.8957 12.2891 19.4219V18.989C12.2891 18.1767 12.7779 17.45 13.5345 17.1376L13.5466 17.1325C14.3033 16.8183 15.1632 16.9863 15.7376 17.5606L16.0437 17.8667C16.206 18.029 16.4218 18.1184 16.6513 18.1184C16.8809 18.1184 17.0967 18.029 17.259 17.8667L17.8667 17.259C18.029 17.0967 18.1184 16.8809 18.1184 16.6513C18.1184 16.4218 18.029 16.206 17.8667 16.0437L17.5606 15.7376C16.9866 15.1635 16.8184 14.3041 17.132 13.5479L17.1376 13.5344C17.45 12.7779 18.1767 12.2891 18.9891 12.2891H19.4219ZM6.01562 11C6.01562 8.25163 8.25159 6.01562 11 6.01562C13.7484 6.01562 15.9844 8.25163 15.9844 11C15.9844 11.4763 15.9171 11.9478 15.7845 12.4014C15.6512 12.8569 15.174 13.1182 14.7184 12.985C14.2628 12.8517 14.0015 12.3745 14.1348 11.9189C14.2216 11.6221 14.2656 11.3129 14.2656 11C14.2656 9.19931 12.8006 7.73438 11 7.73438C9.19935 7.73438 7.73438 9.19931 7.73438 11C7.73438 12.8007 9.19935 14.2656 11 14.2656C11.3372 14.2656 11.6692 14.2147 11.9868 14.1141C12.4392 13.9709 12.9222 14.2216 13.0654 14.6741C13.2086 15.1266 12.958 15.6096 12.5055 15.7528C12.0199 15.9065 11.5133 15.9844 11 15.9844C8.25159 15.9844 6.01562 13.7484 6.01562 11Z" fill="#4C51CB"/>
</svg>

<svg width="22" height="22" fill="none" xmlns="http://www.w3.org/2000/svg"><path fill-rule="evenodd" clip-rule="evenodd" d="M18.99 7.992h.432A2.581 2.581 0 0122 10.57v.86a2.581 2.581 0 01-2.578 2.578h-.433a.287.287 0 00-.263.183l-.006.015a.288.288 0 00.056.316l.306.306c.487.487.755 1.135.755 1.823a2.56 2.56 0 01-.755 1.823l-.608.608a2.561 2.561 0 01-1.823.755 2.561 2.561 0 01-1.823-.755l-.306-.306a.288.288 0 00-.316-.056l-.016.007a.287.287 0 00-.182.262v.433A2.581 2.581 0 0111.43 22h-.86a2.581 2.581 0 01-2.578-2.578v-.433a.287.287 0 00-.182-.263l-.017-.006a.288.288 0 00-.315.056l-.306.306a2.56 2.56 0 01-1.823.755 2.561 2.561 0 01-1.823-.755l-.608-.608a2.561 2.561 0 01-.755-1.823c0-.688.268-1.336.755-1.823l.306-.306a.288.288 0 00.056-.316l-.007-.018a.286.286 0 00-.262-.18h-.433A2.581 2.581 0 010 11.43v-.86a2.581 2.581 0 012.578-2.578h.433a.287.287 0 00.263-.183l.005-.012a.29.29 0 00-.055-.32l-.306-.305a2.581 2.581 0 010-3.646l.608-.608a2.561 2.561 0 011.823-.755c.688 0 1.336.268 1.823.755l.306.306c.08.08.204.103.316.056l.017-.007a.287.287 0 00.181-.262v-.433A2.581 2.581 0 0110.57 0h.86a2.581 2.581 0 012.578 2.578v.433c0 .114.072.217.183.263l.016.007a.288.288 0 00.315-.057l.306-.306a2.561 2.561 0 011.823-.755c.689 0 1.337.268 1.823.755l.608.608a2.581 2.581 0 010 3.646l-.306.306a.288.288 0 00-.056.316l.007.018c.045.109.148.18.262.18zm.432 4.297a.86.86 0 00.86-.86v-.859a.86.86 0 00-.86-.86h-.433a2 2 0 01-1.851-1.244l-.007-.016a2 2 0 01.43-2.188l.306-.306a.86.86 0 000-1.215l-.608-.608a.854.854 0 00-.608-.251.852.852 0 00-.607.251l-.306.306a2.001 2.001 0 01-2.191.429l-.012-.005A2 2 0 0112.29 3.01v-.433a.86.86 0 00-.86-.86h-.859a.86.86 0 00-.86.86v.433a2 2 0 01-1.244 1.851l-.013.005a2.001 2.001 0 01-2.19-.428l-.307-.306a.854.854 0 00-.607-.251.854.854 0 00-.608.251l-.608.608a.86.86 0 000 1.215l.306.306c.575.575.743 1.435.429 2.191l-.004.01A2.001 2.001 0 013.01 9.71h-.433a.86.86 0 00-.86.86v.859c0 .473.386.86.86.86h.433a2 2 0 011.851 1.244l.006.014a2.001 2.001 0 01-.429 2.19l-.306.306a.854.854 0 00-.251.607c0 .23.089.446.251.608l.608.608a.854.854 0 00.608.251c.23 0 .445-.089.607-.251l.306-.306a1.992 1.992 0 011.412-.585c.261 0 .526.051.779.156l.012.005A2 2 0 019.71 18.99v.433c0 .474.386.86.86.86h.859a.86.86 0 00.86-.86v-.433a2 2 0 011.245-1.851l.012-.006a2.002 2.002 0 012.19.429l.307.306a.854.854 0 00.607.251c.23 0 .446-.089.608-.251l.608-.608a.854.854 0 00.251-.608.852.852 0 00-.251-.607l-.306-.306a2.001 2.001 0 01-.429-2.19l.006-.014a2 2 0 011.851-1.245h.433zM6.016 11A4.99 4.99 0 0111 6.016a4.99 4.99 0 014.784 6.385.86.86 0 01-1.65-.482A3.27 3.27 0 0011 7.734 3.27 3.27 0 007.735 11a3.27 3.27 0 004.253 3.114.86.86 0 01.518 1.639A4.99 4.99 0 016.015 11z" fill="#4C51CB"/></svg>
